static/assets/images/icons/intermediary.svg

<svg width="256" height="256" viewBox="0 0 256 256" fill="none" xmlns="http://www.w3.org/2000/svg">
<path d="M223 223H168.714V168.714H223V223ZM182.286 209.429H209.429V182.286H182.286V209.429ZM155.143 202.643H73.7143C62.9162 202.643 52.5603 198.353 44.9249 190.718C37.2895 183.083 33 172.727 33 161.929C33 151.13 37.2895 140.775 44.9249 133.139C52.5603 125.504 62.9162 121.214 73.7143 121.214H87.2857V134.786H73.7143C66.5156 134.786 59.6117 137.645 54.5214 142.736C49.4311 147.826 46.5714 154.73 46.5714 161.929C46.5714 169.127 49.4311 176.031 54.5214 181.121C59.6117 186.212 66.5156 189.071 73.7143 189.071H155.143V202.643Z" fill="black"/>
<path d="M155.143 155.143H100.857V100.857H155.143V155.143ZM114.429 141.571H141.571V114.429H114.429V141.571Z" fill="black"/>
<path d="M182.286 134.786H168.714V121.214H182.286C189.484 121.214 196.388 118.355 201.479 113.264C206.569 108.174 209.429 101.27 209.429 94.0714C209.429 86.8727 206.569 79.9688 201.479 74.8785C196.388 69.7883 189.484 66.9286 182.286 66.9286H100.857V53.3571H182.286C193.084 53.3571 203.44 57.6467 211.075 65.2821C218.71 72.9175 223 83.2733 223 94.0714C223 104.87 218.71 115.225 211.075 122.861C203.44 130.496 193.084 134.786 182.286 134.786ZM87.2857 87.2857H33V33H87.2857V87.2857ZM46.5714 73.7143H73.7143V46.5714H46.5714V73.7143Z" fill="black"/>
</svg>

<svg xmlns="http://www.w3.org/2000/svg" viewBox="0 0 256 256"><path d="M223 223h-54.286v-54.286H223zm-40.714-13.571h27.143v-27.143h-27.143zm-27.143-6.786H73.714a40.716 40.716 0 0 1-28.79-69.504 40.72 40.72 0 0 1 28.79-11.925h13.572v13.572H73.714a27.14 27.14 0 0 0-27.143 27.143 27.14 27.14 0 0 0 27.143 27.142h81.429z"/><path d="M155.143 155.143h-54.286v-54.286h54.286zm-40.714-13.572h27.142v-27.142h-27.142z"/><path d="M182.286 134.786h-13.572v-13.572h13.572a27.143 27.143 0 1 0 0-54.285h-81.429V53.357h81.429a40.713 40.713 0 0 1 28.789 69.504 40.72 40.72 0 0 1-28.789 11.925m-95-47.5H33V33h54.286zM46.57 73.714h27.143V46.571H46.571z"/></svg>
